assets/icons/printer/network-filled.svg

<?xml version="1.0" encoding="UTF-8" standalone="no"?>
<svg
   viewBox="0 0 24 24"
   height="24"
   width="24"
   version="1.1"
   id="svg4"
   sodipodi:docname="network-filled.svg"
   inkscape:version="1.2 (1:1.2.1+202207142221+cd75a1ee6d)"
   xmlns:inkscape="http://www.inkscape.org/namespaces/inkscape"
   xmlns:sodipodi="http://sodipodi.sourceforge.net/DTD/sodipodi-0.dtd"
   xmlns="http://www.w3.org/2000/svg"
   xmlns:svg="http://www.w3.org/2000/svg">
  <defs
     id="defs8" />
  <sodipodi:namedview
     id="namedview6"
     pagecolor="#ffffff"
     bordercolor="#666666"
     borderopacity="1.0"
     inkscape:pageshadow="2"
     inkscape:pageopacity="0.0"
     inkscape:pagecheckerboard="0"
     showgrid="true"
     inkscape:zoom="14"
     inkscape:cx="-17.142857"
     inkscape:cy="18.357143"
     inkscape:window-width="1920"
     inkscape:window-height="1043"
     inkscape:window-x="0"
     inkscape:window-y="0"
     inkscape:window-maximized="1"
     inkscape:current-layer="svg4"
     inkscape:showpageshadow="2"
     inkscape:deskcolor="#d1d1d1">
    <inkscape:grid
       type="xygrid"
       id="grid821" />
  </sodipodi:namedview>
  <path
     id="rect867"
     style="fill:#808080;fill-opacity:1;fill-rule:evenodd;stroke-width:0.5;stroke-linecap:round;stroke-linejoin:round"
     d="M 6 2 L 6 6 L 18 6 L 18 2 L 6 2 z M 6 7 L 6 7.0078125 C 4.9331356 7.0375525 4.0204078 7.178952 3.2949219 7.640625 C 2.4585445 8.172865 2 9.1500062 2 10.5 L 2 14.5 C 2 15.849995 2.4585445 16.827137 3.2949219 17.359375 C 4.0204078 17.82105 4.9331356 17.962447 6 17.992188 L 6 18 L 7 18 L 8 18 L 11 18 L 11 19 L 13 19 L 13 18 L 16 18 L 17 18 L 18 18 L 18 17.992188 C 19.066865 17.962448 19.979594 17.82105 20.705078 17.359375 C 21.541455 16.827137 22 15.849995 22 14.5 L 22 10.5 C 22 9.1500062 21.541455 8.172865 20.705078 7.640625 C 19.979594 7.178952 19.066865 7.0375525 18 7.0078125 L 18 7 L 6 7 z M 18 10 A 1 1 0 0 1 19 11 A 1 1 0 0 1 18 12 A 1 1 0 0 1 17 11 A 1 1 0 0 1 18 10 z M 7 15 L 17 15 L 17 16 L 7 16 L 7 15 z " />
  <path
     style="fill:#808080;fill-opacity:1;fill-rule:evenodd;stroke-width:0.5;stroke-linecap:round;stroke-linejoin:round"
     d="m 5,21 v 1 h 14 v -1 z"
     id="path298" />
</svg>

<svg height="24" width="24" xmlns="http://www.w3.org/2000/svg"><path style="fill:gray;fill-opacity:1;stroke-width:.5;stroke-linecap:round;stroke-linejoin:round" d="M6 2v4h12V2H6zm0 5v.008c-1.067.03-1.98.171-2.705.633C2.459 8.173 2 9.15 2 10.5v4c0 1.35.459 2.327 1.295 2.86.725.461 1.638.602 2.705.632V18h5v1h2v-1h5v-.008c1.067-.03 1.98-.171 2.705-.633C21.541 16.827 22 15.85 22 14.5v-4c0-1.35-.459-2.327-1.295-2.86-.725-.461-1.638-.602-2.705-.632V7H6zm12 3a1 1 0 0 1 1 1 1 1 0 0 1-1 1 1 1 0 0 1-1-1 1 1 0 0 1 1-1zM7 15h10v1H7v-1zm-2 6v1h14v-1z"/></svg>
